X:1
T:Lorendo
M:4/4
L:1/4
K:C
 G B/2B/2 d e| d B2 G| B d2 e| A4| G B/2B/2 d e| d B2 c| d B2 A| G4|\
 e e/2e/2 e g| d B2 G/2G/2| G G2 e| d4| B/2B/2 B2 G| A E2 G/2G/2| B G2 A|\
 G4|
